X: 31057
T: Paddy Cronin's
R: reel
M: 4/4
K: Edorian
|:ED|B,EED EFGA|B2 eB dBAd|BE{G/}ED EGFE|DB, ~B,2 DFED|
B,E{G/}ED EFGA|.B2 eB dBAF|GFGE DB, ~B,2|BFAF E2:|
|:FA|B2 eB fBeB|dBAF ADFA|B2 eB fBeB|dBAF E2 FA|
(B/c/d) eB fBeB|dBAF ADDF|GFGE DB, ~B,2|BFAF E2:|

